Simply-Purple-Circles/scalable/apps/firefox-developer-edition.svg

<?xml version="1.0" encoding="UTF-8" standalone="no"?><svg xmlns:dc="http://purl.org/dc/elements/1.1/" xmlns:cc="http://creativecommons.org/ns#" xmlns:rdf="http://www.w3.org/1999/02/22-rdf-syntax-ns#" xmlns="http://www.w3.org/2000/svg" width="48" height="48" viewBox="0 0 12.7 12.7"><metadata><rdf:RDF><cc:Work><dc:format>image/svg+xml</dc:format><dc:type rdf:resource="http://purl.org/dc/dcmitype/StillImage"/><dc:title/></cc:Work></rdf:RDF></metadata><path d="M6.34.07a6.29 6.29 0 0 0-6.28 6.3 6.29 6.29 0 0 0 6.29 6.28 6.29 6.29 0 0 0 6.28-6.29A6.29 6.29 0 0 0 6.34.07zm-.01.94a5.4 5.4 0 0 1 5.4 5.4 5.4 5.4 0 0 1-5.4 5.41 5.4 5.4 0 0 1-5.41-5.4A5.4 5.4 0 0 1 6.32 1z" fill="#963996"/><path fill="#007caa" d="M7.98 2.05v.07c.24.51.7.98 1.05 1.45.05-.13.1-.54.2-.65l.03.06a2.92 2.92 0 0 0 .27.48c.72 1.06 1.45 1.83 1.45 3.35 0 2.38-2.08 4.31-4.63 4.31-2.56 0-4.63-1.93-4.63-4.31 0-.86.27-1.65.73-2.32v-.02l.04-.38c.06-.26.27-1.02.59-1.17.14.27.18.76.35 1.03a.45.45 0 0 1 .18-.04h.02a.57.57 0 0 1 .04 0h.11a1.92 1.92 0 0 1 .11 0 1.9 1.9 0 0 1 .37.02h.02l.02.01h.05l.02.01h.04c.2.06.18.06.25 0 .2-.18.85-.5 1.2-.32-.22.19-.83.54-.66.92a.5.5 0 0 0 .41.25c.5.04.7.09.73.16.03.05-.01.2-.07.28a.8.8 0 0 1-.19.17l-.26.12c-.18.07-.63.2-.63.4.05.16.32.34.2.46a1.93 1.93 0 0 0-.77-.21c-.35.43.01 1.03.73 1.19.17.04.33.03.6-.05.28-.08.42-.08.57-.08.15 0 .22 0 .35.06.15.05.33.19.38.29.04.08.02.1-.05.14-.03.02-.05.02-.2 0-.1-.01-.29.02-.67.21-.25.13-.46.17-.68.17-.24 0-.48.02-.81-.03.12.66 1.04.88 1.73.88 1.08 0 1.85-.8 2.09-1.82a1.95 1.95 0 0 0-.2-1.2 4.12 4.12 0 0 0-.7-.82 2.22 2.22 0 0 1-.47-.98 2.44 2.44 0 0 1 0-.64 2.8 2.8 0 0 1 .14-.47c.13-.32.25-.62.46-.88l.03-.04z" opacity=".75"/></svg>

<?xml version="1.0" encoding="UTF-8" standalone="no"?>
<svg
   xmlns:dc="http://purl.org/dc/elements/1.1/"
   xmlns:cc="http://creativecommons.org/ns#"
   xmlns:rdf="http://www.w3.org/1999/02/22-rdf-syntax-ns#"
   xmlns:svg="http://www.w3.org/2000/svg"
   xmlns="http://www.w3.org/2000/svg"
   xmlns:sodipodi="http://sodipodi.sourceforge.net/DTD/sodipodi-0.dtd"
   xmlns:inkscape="http://www.inkscape.org/namespaces/inkscape"
   width="48"
   height="48"
   viewBox="0 0 12.7 12.7"
   version="1.1"
   id="svg8"
   sodipodi:docname="firefox-developer-edition.svg"
   inkscape:version="0.92.4 (5da689c313, 2019-01-14)">
  <defs
     id="defs12" />
  <sodipodi:namedview
     pagecolor="#ffffff"
     bordercolor="#666666"
     borderopacity="1"
     objecttolerance="10"
     gridtolerance="10"
     guidetolerance="10"
     inkscape:pageopacity="0"
     inkscape:pageshadow="2"
     inkscape:window-width="1087"
     inkscape:window-height="480"
     id="namedview10"
     showgrid="false"
     inkscape:zoom="4.9166667"
     inkscape:cx="2.1355932"
     inkscape:cy="24"
     inkscape:window-x="0"
     inkscape:window-y="25"
     inkscape:window-maximized="0"
     inkscape:current-layer="svg8" />
  <metadata
     id="metadata2">
    <rdf:RDF>
      <cc:Work>
        <dc:format>image/svg+xml</dc:format>
        <dc:type
           rdf:resource="http://purl.org/dc/dcmitype/StillImage" />
        <dc:title></dc:title>
      </cc:Work>
    </rdf:RDF>
  </metadata>
  <path
     d="M 6.34,0.07 A 6.29,6.29 0 0 0 0.06,6.37 6.29,6.29 0 0 0 6.35,12.65 6.29,6.29 0 0 0 12.63,6.36 6.29,6.29 0 0 0 6.34,0.07 Z M 6.33,1.01 a 5.4,5.4 0 0 1 5.4,5.4 5.4,5.4 0 0 1 -5.4,5.41 A 5.4,5.4 0 0 1 0.92,6.42 5.4,5.4 0 0 1 6.32,1 Z"
     id="path4"
     inkscape:connector-curvature="0"
     style="fill:#963996" />
  <path
     d="M 7.98,2.05 V 2.12 C 8.22,2.63 8.68,3.1 9.03,3.57 9.08,3.44 9.13,3.03 9.23,2.92 l 0.03,0.06 a 2.92,2.92 0 0 0 0.27,0.48 c 0.72,1.06 1.45,1.83 1.45,3.35 0,2.38 -2.08,4.31 -4.63,4.31 -2.56,0 -4.63,-1.93 -4.63,-4.31 0,-0.86 0.27,-1.65 0.73,-2.32 V 4.47 L 2.49,4.09 C 2.55,3.83 2.76,3.07 3.08,2.92 3.22,3.19 3.26,3.68 3.43,3.95 A 0.45,0.45 0 0 1 3.61,3.91 h 0.02 a 0.57,0.57 0 0 1 0.04,0 h 0.11 a 1.92,1.92 0 0 1 0.11,0 1.9,1.9 0 0 1 0.37,0.02 H 4.28 L 4.3,3.94 h 0.05 l 0.02,0.01 h 0.04 c 0.2,0.06 0.18,0.06 0.25,0 C 4.86,3.77 5.51,3.45 5.86,3.63 5.64,3.82 5.03,4.17 5.2,4.55 A 0.5,0.5 0 0 0 5.61,4.8 c 0.5,0.04 0.7,0.09 0.73,0.16 0.03,0.05 -0.01,0.2 -0.07,0.28 A 0.8,0.8 0 0 1 6.08,5.41 L 5.82,5.53 C 5.64,5.6 5.19,5.73 5.19,5.93 5.24,6.09 5.51,6.27 5.39,6.39 A 1.93,1.93 0 0 0 4.62,6.18 C 4.27,6.61 4.63,7.21 5.35,7.37 5.52,7.41 5.68,7.4 5.95,7.32 6.23,7.24 6.37,7.24 6.52,7.24 c 0.15,0 0.22,0 0.35,0.06 C 7.02,7.35 7.2,7.49 7.25,7.59 7.29,7.67 7.27,7.69 7.2,7.73 7.17,7.75 7.15,7.75 7,7.73 6.9,7.72 6.71,7.75 6.33,7.94 6.08,8.07 5.87,8.11 5.65,8.11 5.41,8.11 5.17,8.13 4.84,8.08 4.96,8.74 5.88,8.96 6.57,8.96 7.65,8.96 8.42,8.16 8.66,7.14 A 1.95,1.95 0 0 0 8.46,5.94 4.12,4.12 0 0 0 7.76,5.12 2.22,2.22 0 0 1 7.29,4.14 2.44,2.44 0 0 1 7.29,3.5 2.8,2.8 0 0 1 7.43,3.03 C 7.56,2.71 7.68,2.41 7.89,2.15 L 7.92,2.11 Z"
     id="path6"
     inkscape:connector-curvature="0"
     style="opacity:0.75;fill:#007caa" />
</svg>
